X:1
T:Over the Mountains [2]
T:Over the Mountains [2]
T:Dan Emmett
C:Dan Emmett
L:1/8
M:2/4
K:G
V:1 treble 
V:1
 D | G>ABB | cd B2 | G/F/G/A/ BB | c/A/A/A/ A2 | G>ABB | cd B2 | G/F/G/A/ BB | c/A/A/A/ A2 | %9
 AB/A/ GE | FA d2 | AB/A/ GE | ED D2 | AB/A/ GE | FA d2 | fd/d/ ec | d3 || d2 ed | gd (b2 | %19
 b)a da/a/ | ag B2 | d/d/d/d/ gd b2 | bc'/b/ af | g3 || %24

